!!!Genre:	Sher
!!!Mode:	Minor
!!!Listening/dance:	dance
!!!:	*g:dor
!!!One_Mode:	no
**kern
*thru
*I"P1
*clefG2
*k[b-e-]
*g:
*M2/4
*>A
8d
=1
8dL
8g
8f#X
8gJ
=2
8aL
8b-
8g
8b-J
=3
4a
4a
=4
(8aL
16f#XL
16aJJ
8f#L)
8dJ
=5
8r
8ccL
8b-
8aJ
=6
8gL
8f#X
8g
8aJ
=7
2b-
=8
4b-
4r
=9
(16gLL
16aJ
8b-J)
(16gLL
16aJ
8b-J)
=10
8b-L
16b-L
16b-JJ
8aL
8gJ
=11
4f#X
4g
=12
8aL
8g
8b-
8aJ
=13
[2g
=14
4g]
4r
=15||
*>B
*k[b-]
*>bM
*g:dor
2dd
=16
8cc#XL
8dd
8ee
8ffJ
=17
8eeL
8dd
8cc#X
8b-J
=18
4dd
(8qcc#X/
4dd)
=19
(8qcc#X/
4dd)
(8qcc#X/
4dd)
=20
8cc#XL
8dd
8ee
8ffJ
=21
8eeL
8dd
8cc#X
8b-J
=22
4dd
(8qcc#X/
4dd)
=23
(8qcc#X/
4dd)
(8qcc#X/
4dd)
=24
8cc#XL
8dd
8ee
8ffJ
=25
8eeL
8dd
8cc#X
8b-J
=26
8aL
8b-
8cc#X
8ddJ
=27
8cc#XL
8b-
8a
8gJ
=28
4b-
8aL
8gJ
=29
4a
8gL
8f#XJ
=30
[2g
=31
4g]
8r
*>eM
==
*-
